X:1
T:Title
%%score { ( 1 3 ) | 2 }
L:1/8
M:6/8
K:Ab
V:1 treble nm="Grand Piano"
V:3 treble 
V:2 treble 
V:1
 z3 z2[Q:1/4=74] c/B/ | AGF E2 E/E/ | F[FA][DF] [CE]2 A/B/ | ccc BAF | [GB]3- [GB]2 c/d/ | %5
 ecB A2 A/[GB]/ |[M:5/8] [Ac][FA][=EG] [DF]2 |[M:1/8] [EG]/F/ |[M:3/4] EA [GB][Ac] [Ac][GB] | %9
[M:5/8] A-A- A3 |[M:1/8] E/E/ |[M:3/4] A2 Ac BA | e6 | A2 AA Bc | [GB]4- [GB]c/d/ | %15
 ec B A2 A/[CGB]/ |[M:7/8] [FAc][CFA][B,=EG] [A,DF]3 [D_EG]/[A,DF]/ | %17
 [A,CE] [EAc]2 [EAc][CEA]3/2[DEB]3/2 |[M:5/8] [A,CEA]-[A,CEA]- [A,CEA]3 |] %19
V:2
 z3 z2 [A,EA]/[A,DG]/ | [A,CE][A,E][A,D][K:bass] [A,C]2 [A,C]/[A,C]/ | %2
 [D,A,D][D,D][D,A,] [A,,A,]2[K:treble] [A,C]/[A,DA]/ | %3
 [A,EA][A,EA][A,EA] [B,=DF][B,DF][K:bass][B,D] | [E,E]3- [E,E]2[K:treble] [A,EA]/[A,DA]/ | %5
 [A,CA][A,CE][G,C=E][K:bass] [F,CF]2 [F,CF]/[F,C]/ |[M:5/8] [F,C][F,C][C,B,] [D,A,]2 | %7
[M:1/8] [D,A,]/[D,A,D]/ |[M:3/4] [E,A,C][E,CE] [E,D][E,E] [E,E][E,D] | %9
[M:5/8][K:treble] [A,C]-[A,C]- [A,C]3 |[M:1/8] [A,C]/[A,C]/ | %11
[M:3/4] [A,CE]2 [A,CE][A,EA] [A,DA][A,C] | [A,CA]2 [B,D] [CE]2 [A,EA]/[A,DA]/ | %13
 [A,CE]2 [A,CE][B,=DF] [B,DF][B,DF] | [E,E]4- [E,E][K:treble][A,EA]/[A,DA]/ | %15
 [A,CA][A,CE] [G,C=E][K:bass] [F,CF]2 [F,CF]/F,/ |[M:7/8] F,F,C, D,3 D,/D,/ | E, E,2 E,E,3/2E,3/2 | %18
[M:5/8] A,,-A,,- A,,3 |] %19
V:3
 x6 | x6 | x6 | x6 | x6 | x6 |[M:5/8] x5 |[M:1/8] x |[M:3/4] x6 |[M:5/8] x5 |[M:1/8] x | %11
[M:3/4] x6 | z2 G A2 c/B/ | x6 | x6 | x6 |[M:7/8] x7 | x7 |[M:5/8] x5 |] %19

